X:1
T:Vadodara, 88.88.99
T:Vadodara, 88.88.99
T:John Robson Sweney, 1876
T:Public Domain Courtesy of the Cyber Hymnal™
C:John Robson Sweney, 1876
Z:Public Domain
Z:Courtesy of the Cyber Hymnal™
%%score ( 1 2 ) ( 3 4 )
L:1/8
Q:1/4=105
M:4/4
K:Ab
V:1 treble 
V:2 treble 
V:3 bass 
V:4 bass 
V:1
 [CE] | [Ec]2 [Ec]2 [Ec]2 ([CA][DB]) | [Ec]2 [DB]2 [CA]3 E | [DF]2 [FA]2 [FA]2 [Fd]2 | %4
 [Ec]2 [Ac]2 [GB]2 (cd) | [Ee]2 [Ec]2 [Ec]2 ([DB][CA]) | [Ec]2 [DB]2 [CA]3 E | %7
 [DF]2 [Dd]2 [Ec]3 [CA] | [Ec]2 [DB]2 [CA]2 z [CE] | [CE]3 [DF] [CE]2 [CA]2 | %10
 [Ec]3 [Ed] [Ec] [EB]2 E | [EB]2 [Ec]2 [Ed]3 E | [DB]3 [Ec] [DB] [CA]2 |] %13
V:2
 x | x8 | x7 E | x8 | x6 A2 | x8 | x7 E | x8 | x8 | x8 | x7 E | x7 E | x7 |] %13
V:3
 [A,,A,] | [A,,A,]2 [A,,A,]2 [A,,A,]2 [A,,A,]2 | [A,,A,]2 [E,G,]2 [A,,A,]3 [C,A,] | %3
 [D,A,]2 [D,D]2 [D,D]2 [D,A,]2 | A,2 [A,E]2 [E,E]2 (A,B,) | [A,C]2 [A,,A,]2 [A,,A,]2 [A,,A,]2 | %6
 [A,,A,]2 [E,G,]2 [A,,A,]3 [C,A,] | [D,A,]2 [F,A,]2 A,3 [A,,A,] | %8
 [E,A,]2 [E,G,]2 [A,,A,]2 z [A,,A,] | [A,,A,]3 [A,,A,] [A,,A,]2 [A,,A,]2 | %10
 A,3 [E,B,] [E,A,] [E,G,]2 [E,G,] | [E,G,]2 [E,A,]2 [E,B,]3 [E,G,] | %12
 [E,G,]3 [E,A,] [A,,G,] [A,,E,]2 |] %13
V:4
 x | x8 | x8 | x8 | A,2 x2 A,2 x2 | x8 | x8 | x4 A,3 x | x8 | x8 | A,3 x5 | x8 | x7 |] %13

